packages/components/Atoms/Icon/assets/img/rpl_icon_xls.svg

<svg width="21" height="20" viewBox="0 0 21 20" overflow="visible" xmlns="http://www.w3.org/2000/svg">
  <path fill-rule="evenodd" clip-rule="evenodd" d="M18.0742 15.0546C17.3102 15.0546 16.6862 14.9146 16.1822 14.3966L16.9672 13.6126C17.2262 13.8706 17.6812 13.9616 18.0812 13.9616C18.5642 13.9616 18.7952 13.8006 18.7952 13.5136C18.7952 13.3946 18.7672 13.2966 18.6972 13.2196C18.6342 13.1566 18.5292 13.1076 18.3682 13.0866L17.7652 13.0026C17.3242 12.9396 16.9882 12.7926 16.7632 12.5616C16.5332 12.3236 16.4212 11.9876 16.4212 11.5596C16.4212 10.6496 17.1072 9.98459 18.2422 9.98459C18.9562 9.98459 19.4952 10.1526 19.9232 10.5786L19.1522 11.3496C18.8372 11.0336 18.4242 11.0556 18.2072 11.0556C17.7792 11.0556 17.6042 11.3006 17.6042 11.5176C17.6042 11.5806 17.6262 11.6716 17.7022 11.7486C17.7652 11.8116 17.8712 11.8746 18.0462 11.8966L18.6482 11.9806C19.0962 12.0426 19.4192 12.1836 19.6292 12.3936C19.8942 12.6526 20.0002 13.0236 20.0002 13.4866C20.0002 14.5006 19.1242 15.0546 18.0742 15.0546Z"
    fill="inherit" />
  <path fill-rule="evenodd" clip-rule="evenodd" d="M10 5V2.824L12.176 5H10ZM10.003 0H1C0.447 0 0 0.447 0 1V19C0 19.553 0.447 20 1 20H14C14.553 20 15 19.553 15 19V16H13V18H2V2H8V6C8 6.553 8.447 7 9 7H13V9H15V4.997L10.003 0Z"
    fill="inherit" />
  <path fill-rule="evenodd" clip-rule="evenodd" d="M10.8574 15.0127L10.0384 13.4787L9.21838 15.0127H7.81738L9.37238 12.4557L7.91638 10.0267H9.30938L10.0384 11.4337L10.7664 10.0267H12.1604L10.7034 12.4557L12.2574 15.0127H10.8574Z"
    fill="inherit" />
  <path fill-rule="evenodd" clip-rule="evenodd" d="M12.6201 15.0127V10.0267H13.8461V13.9197H15.9391V15.0127H12.6201Z" fill="inherit"
  />
</svg>

<svg width="21" height="20" overflow="visible" xmlns="http://www.w3.org/2000/svg"><path fill-rule="evenodd" clip-rule="evenodd" d="M18.074 15.055c-.764 0-1.388-.14-1.892-.658l.785-.784c.26.258.714.349 1.114.349.483 0 .714-.161.714-.448a.416.416 0 00-.098-.294c-.063-.063-.168-.112-.329-.133l-.603-.084c-.44-.063-.777-.21-1.002-.441-.23-.238-.342-.574-.342-1.002 0-.91.686-1.575 1.821-1.575.714 0 1.253.168 1.681.594l-.77.77c-.316-.315-.729-.293-.946-.293-.428 0-.603.245-.603.462 0 .063.022.154.098.23a.57.57 0 00.344.149l.602.084c.448.062.771.203.981.413.265.259.371.63.371 1.093 0 1.014-.876 1.568-1.926 1.568zM10 5V2.824L12.176 5H10zm.003-5H1a1 1 0 00-1 1v18a1 1 0 001 1h13a1 1 0 001-1v-3h-2v2H2V2h6v4a1 1 0 001 1h4v2h2V4.997L10.003 0z" fill="inherit"/><path fill-rule="evenodd" clip-rule="evenodd" d="M10.857 15.013l-.819-1.534-.82 1.534h-1.4l1.554-2.557-1.456-2.43H9.31l.73 1.408.727-1.407h1.394l-1.457 2.429 1.554 2.557h-1.4zM12.62 15.013v-4.986h1.226v3.893h2.093v1.093H12.62z" fill="inherit"/></svg>
